pix/conditional.svg

<svg xmlns="http://www.w3.org/2000/svg" viewBox="0 0 100 100" style="enable-background:new 0 0 100 100"><path d="m92 96.1h-84c-2.6 0-5-1.5-6.3-3.9s-1.3-5.4 0-7.7l42-76.7c1.3-2.4 3.7-3.9 6.3-3.9s5 1.5 6.3 3.8l41.8 76.3c.8 1.1 1.2 2.7 1.2 4.3 0 4.3-3.2 7.8-7.3 7.8" style="fill:#ff9800"/><path d="m50.1 78.7c-.6 0-1.2-.2-1.6-.6-.5-.4-.8-1.1-.8-1.8s.2-1.2.7-1.7c.9-.9 2.5-.9 3.4 0 .5.4.7 1 .7 1.7 0 .9-.4 1.5-.8 1.8-.4.4-1 .6-1.6.6zm0-2.7c-.1 0-.2 0-.2.1-.1.1-.1.2-.1.3 0 .1 0 .2.1.3.1.1.3.1.5 0 .1-.1.1-.2.1-.3 0 0 0-.2-.2-.3 0 0-.2-.1-.2-.1zm0-11.1c-.8 0-1.4-.6-1.4-1.4v-32.4c0-.8.6-1.4 1.4-1.4.8 0 1.4.6 1.4 1.4v32.4c0 .8-.7 1.4-1.4 1.4z" style="fill:#fff;stroke-miterlimit:10;stroke:#fff;stroke-width:6"/></svg>

<?xml version="1.0" encoding="utf-8"?>
<!-- Generator: Adobe Illustrator 20.1.0, SVG Export Plug-In . SVG Version: 6.00 Build 0)  -->
<svg version="1.1" id="Layer_2" xmlns="http://www.w3.org/2000/svg" xmlns:xlink="http://www.w3.org/1999/xlink" x="0px" y="0px"
	 viewBox="0 0 100 100" style="enable-background:new 0 0 100 100;" xml:space="preserve">
<style type="text/css">
	.st0{fill:#FF9800;}
	.st1{fill:#FFFFFF;stroke:#FFFFFF;stroke-width:6;stroke-miterlimit:10;}
</style>
<path class="st0" d="M92,96.1H8c-2.6,0-5-1.5-6.3-3.9s-1.3-5.4,0-7.7l42-76.7C45,5.4,47.4,3.9,50,3.9s5,1.5,6.3,3.8L98.1,84
	c0.8,1.1,1.2,2.7,1.2,4.3C99.3,92.6,96.1,96.1,92,96.1z"/>
<path class="st1" d="M50.1,78.7c-0.6,0-1.2-0.2-1.6-0.6c-0.5-0.4-0.8-1.1-0.8-1.8s0.2-1.2,0.7-1.7c0.9-0.9,2.5-0.9,3.4,0
	c0.5,0.4,0.7,1,0.7,1.7c0,0.9-0.4,1.5-0.8,1.8C51.3,78.5,50.7,78.7,50.1,78.7z M50.1,76c-0.1,0-0.2,0-0.2,0.1
	c-0.1,0.1-0.1,0.2-0.1,0.3c0,0.1,0,0.2,0.1,0.3c0.1,0.1,0.3,0.1,0.5,0c0.1-0.1,0.1-0.2,0.1-0.3c0,0,0-0.2-0.2-0.3
	C50.3,76.1,50.1,76,50.1,76z M50.1,64.9c-0.8,0-1.4-0.6-1.4-1.4V31.1c0-0.8,0.6-1.4,1.4-1.4c0.8,0,1.4,0.6,1.4,1.4v32.4
	C51.5,64.3,50.8,64.9,50.1,64.9z"/>
</svg>
